X: 67
T: Mai sirong
L: 1/16
M: 2/4
K: D
f a f ef4 [I:setbarnb 1]| 
A2 A Bd4 | 
d e f a A B d2 | 
f e c BA4 | 
f a f e f a f e | 
A A A Bd4 | 
d e f a A B d2 | 
f a c BA4 |]

@@@ Tune index: 8941
